svg/u25fb.svg

<svg viewBox="0 0 128 128" xmlns="http://www.w3.org/2000/svg">
  <g>
    <path d="M22.75,20.03h82.2c1.6,0,2.9,1.3,2.9,2.9l0,0v82.2c0,1.6-1.3,2.9-2.9,2.9l0,0h-82.2 c-1.6,0-2.9-1.3-2.9-2.9l0,0v-82.1c-0.08-1.58,1.14-2.92,2.72-3C22.63,20.03,22.69,20.03,22.75,20.03z" fill="#BDBDBD"/>
    <path d="M22.65,20.03h74.9c1.53,0.03,2.77,1.27,2.8,2.8v74.9c-0.03,1.53-1.27,2.77-2.8,2.8h-74.9 c-1.53-0.03-2.77-1.27-2.8-2.8v-74.8c-0.04-1.56,1.18-2.85,2.74-2.9C22.61,20.03,22.63,20.03,22.65,20.03z" fill="#E0E0E0"/>
    <path d="M44.25,27.33c0-1.5-1-1.9-6.9-1.7c-4.9,0.2-7.3,0.8-8.8,2.6s-1.9,5.4-1.9,9.8c0,3.1,0,5.9,1.6,5.9 c2.2,0,2.2-5,4-7.9C35.55,30.53,44.25,29.33,44.25,27.33z" fill="#FFFFFF"/>
  </g>
</svg>

<svg viewBox="0 0 128 128" xmlns="http://www.w3.org/2000/svg">
  <defs/>
  <path d="M22.75,20.03 L104.95,20.03 C106.55,20.03 107.85,21.33 107.85,22.93 L107.85,22.93 L107.85,105.13 C107.85,106.73 106.55,108.03 104.95,108.03 L104.95,108.03 L22.75,108.03 C21.15,108.03 19.85,106.73 19.85,105.13 L19.85,105.13 L19.85,23.03 C19.77,21.45 20.99,20.11 22.57,20.03 C22.63,20.03 22.69,20.03 22.75,20.03 Z" fill="#BDBDBD"/>
  <path d="M22.65,20.03 L97.55,20.03 C99.08,20.06 100.32,21.3 100.35,22.83 L100.35,97.73 C100.32,99.26 99.08,100.5 97.55,100.53 L22.65,100.53 C21.12,100.5 19.88,99.26 19.85,97.73 L19.85,22.93 C19.81,21.37 21.03,20.08 22.59,20.03 C22.61,20.03 22.63,20.03 22.65,20.03 Z" fill="#E0E0E0"/>
  <path d="M44.25,27.33 C44.25,25.83 43.25,25.43 37.35,25.63 C32.45,25.83 30.05,26.43 28.55,28.23 C27.05,30.03 26.65,33.63 26.65,38.03 C26.65,41.13 26.65,43.93 28.25,43.93 C30.45,43.93 30.45,38.93 32.25,36.03 C35.55,30.53 44.25,29.33 44.25,27.33 Z" fill="#FFFFFF"/>
</svg>
